X:1
T:James Gibb editions
T:Adoramus te, Christe - Clemens non Papa
%%score [ 1 2 3 4 ]
L:1/8
Q:1/4=108
M:4/4
K:D
V:1 treble nm="Soprano" snm="S"
V:2 treble nm="Alto" snm="A"
V:3 treble-8 nm="Tenor" snm="T"
V:4 bass nm="Bass" snm="B"
V:1
"^Adoramus te, Christe" A6 A2 | A4 B4 | A4 (A4- | A2 G2 F4 | E4) F4 | z8 | z8 | %7
w: A- do-|ra- mus|te, Chri\-||* ste,|||
 z2 A2 A2"^Jacobus Clemens non Papa\n(1510-1556)" A2 |[M:4/4] (d6 c2) | B2 A2 G4 ||[M:3/4] F4 z2 | %11
w: et be- ne-|di\- *|ci- mus ti-|bi:|
 A2 A2 A2 | (B3 c) d2 | (c2 B3) A | (A4 ^G2) | A4 z2 |[M:3/4] (A2 B2) c2 | (d3 c) B2 | %18
w: qui- a per|san\- * ctam|cru\- * cem|tu\- *|am|re\- * de-|mis\- * ti|
[Q:1/4=106] (A2[Q:1/4=105] B[Q:1/4=104]c[Q:1/4=103]d[Q:1/4=102]B | %19
w: mun\- * * * *|
[Q:1/4=101] c[Q:1/4=100]d[Q:1/4=97] e4 |[Q:1/4=93] d4[Q:1/4=90] c2) |[Q:1/4=90] !fermata!d6 |] %22
w: ||dum.|
V:2
 E6 E2 | E4 G4 | E4 (F4- | F2 ED C D3- | D2 CB, C2 D2) | A,4 z2 D2 | D2 D2 (G4- | G2 F2 E2) A2- | %8
w: A- do-|ra- mus|te, Chri\-|||ste, et|be- ne- di\-|* * * ci\-|
[M:4/4] A2 G2 A2 (A,2 | B,C D4 C2) ||[M:3/4] D4 z2 | F2 F2 F2 | G4 F2 | (A2 G3) F | (F4 ED) | %15
w: * mus ti\- *||bi:|qui- a per|san- ctam|cru\- * cem|tu\- * *|
 C4 z2 |[M:3/4] (E2 G2) E2 | (A3 F) G2 | A2 (DEFG | AF B4 | G2 A4) | !fermata!F6 |] %22
w: am|re\- * de-|mis\- * ti|mun\- * * * *|||dum.|
V:3
 c6 c2 | c4 d4 | c4 (d4 | B4) A4 | z2 A2 A2 A2 | (d6 c2) | B2 A2 (B3 c | d4 A2 e2- | %8
w: A- do-|ra- mus|te, Chri\-|* ste,|et be- ne-|di\- *|ci- mus ti\- *||
[M:4/4][K:treble-8] e2 d2 e2 c2) | d2 (d2 e4) ||[M:3/4] A4 z2 | z6 | d2 d2 d2 | e3 d B2 | c2 d4 | %15
w: |bi: ti\- *|bi:||qui- a per|san- ctam cru-|cem tu-|
 e4 z2 |[M:3/4][K:treble-8] (c2 d2) c2 | (f2 d2) e2 | (f4 d2 | e2 g3 f | ed e4) | !fermata!d6 |] %22
w: am|re\- * de-|mis\- * ti|mun\- *|||dum.|
V:4
 A,6 A,2 | A,4 G,4 | A,4 (D,4- | D,2 E,2 F,2 D,2) | A,4 z2 D,2 | D,2 D,2 (G,4- | G,2 F,2 E,F,G,A, | %7
w: A- do-|ra- mus|te, Chri\-||ste, et|be- ne- di\-||
 B,C D4) C2 |[M:4/4] B,4 (A,4 | G,2 F,2 E,4) ||[M:3/4] D,4 z2 | D2 D2 D2 | (G,3 A,) B,2 | %13
w: * * * ci-|mus ti\-||bi:|qui- a per|san\- * ctam|
 (A,2 E,2) G,2 | (A,2 B,4) | A,4 z2 |[M:3/4] A,2 G,2 A,2 | D,4 z2 | (D3 C B,2 | A,2 G,2 B,2- | %20
w: cru\- * cem|tu\- *|am|re- de- mis-|ti|mun\- * *||
 B,2 A,4) | !fermata!D,6 |] %22
w: |dum.|

